client/resources/iconsets/breeze/src/svg/16x16/icon_task.svg

<svg xmlns="http://www.w3.org/2000/svg" width="16" height="16" viewBox="0 0 16 16">
 <path style="fill:#6d6d70"
       d="m 8,0.003906 c -1.1046,0 -2,0.89543 -2,2 l -3,0 c -1,0 -1,1 -1,1 l 0,11 c 0,1 1,1 1,1 l 10,0 c 0,0 1,0 1,-1 l 0,-11 C 14,2.0039059 13,2.0039059 13,2.0039059 l -3,0 C 10,1.8658361 9.99495,1.727856 9.96875,1.597656 9.78226,0.686286 8.9666,0.003906 8,0.003906 Z m 0,1 c 0.41421,0 0.75444,0.26608 0.90625,0.625 C 8.95685,1.7485459 9,1.8658361 9,2.0039059 9,2.556186 8.55229,3.003906 8,3.003906 7.44771,3.003906 7,2.556186 7,2.0039059 7,1.4516259 7.44771,1.003906 8,1.003906 Z m -4,3 1,0 0,1 6,0 0,-1 1,0 0,9 -8,0 0,-9 z"
       />
 <path style="fill:#6d6d70"
       d="M 13,3.166016 6.974609,10.0625 4.726562,7.8125 C 4.350484,7.4361 3.667193,7.4362 3.291016,7.8125 3.102927,8.0007 3.007812,8.26595 3.007812,8.53125 c 0,0.2654 0.09511,0.53055 0.283204,0.71875 l 2.998046,3 L 7.068359,13 7.755859,12.1875 15,3.518782 13.705376,2.402088 Z"
       />
</svg>

<svg xmlns="http://www.w3.org/2000/svg" width="16" height="16" fill="#6d6d70"><path d="M8 .004a2 2 0 0 0-2 2H3c-1 0-1 1-1 1v11c0 1 1 1 1 1h10s1 0 1-1v-11c0-1-1-1-1-1h-3c0-.138-.005-.276-.031-.406A2.01 2.01 0 0 0 8 .004zm0 1c.414 0 .754.266.906.625A.94.94 0 0 1 9 2.004a1 1 0 1 1-2 0 1 1 0 0 1 1-1zm-4 3h1v1h6v-1h1v9H4v-9z"/><path d="M13 3.166l-6.025 6.896-2.248-2.25c-.376-.376-1.059-.376-1.436 0-.188.188-.283.453-.283.719s.095.531.283.719l2.998 3 .779.75.688-.812L15 3.519l-1.295-1.117z"/></svg>
